frontend/public/imgs/logos/ubuntu.svg

<?xml version="1.0" encoding="UTF-8" standalone="no"?>
<svg
   width="150"
   height="150"
   viewBox="0 0 150 150"
   fill="none"
   version="1.1"
   id="svg7"
   sodipodi:docname="ubuntu.svg"
   inkscape:version="1.3.2 (091e20ef0f, 2023-11-25)"
   xmlns:inkscape="http://www.inkscape.org/namespaces/inkscape"
   xmlns:sodipodi="http://sodipodi.sourceforge.net/DTD/sodipodi-0.dtd"
   xmlns="http://www.w3.org/2000/svg"
   xmlns:svg="http://www.w3.org/2000/svg">
  <defs
     id="defs7" />
  <sodipodi:namedview
     id="namedview7"
     pagecolor="#ffffff"
     bordercolor="#000000"
     borderopacity="0.25"
     inkscape:showpageshadow="2"
     inkscape:pageopacity="0.0"
     inkscape:pagecheckerboard="0"
     inkscape:deskcolor="#d1d1d1"
     inkscape:zoom="4.4861979"
     inkscape:cx="47.59041"
     inkscape:cy="74.784931"
     inkscape:window-width="1728"
     inkscape:window-height="1011"
     inkscape:window-x="0"
     inkscape:window-y="0"
     inkscape:window-maximized="1"
     inkscape:current-layer="svg7" />
  <g
     id="g7"
     transform="translate(26.3889)">
    <path
       d="M 97.2222,0 H 0 v 150 h 97.2222 z"
       fill="#e95420"
       id="path1" />
    <path
       d="m 21.1982,109.193 c 5.6243,0 10.1836,-4.567 10.1836,-10.2 0,-5.6332 -4.5593,-10.1998 -10.1836,-10.1998 -5.6242,0 -10.1836,4.5666 -10.1836,10.1998 0,5.633 4.5594,10.2 10.1836,10.2 z"
       fill="#ffffff"
       id="path2" />
    <path
       d="m 63.7241,86.7918 c 5.6243,0 10.1836,-4.5666 10.1836,-10.1998 0,-5.6332 -4.5593,-10.1998 -10.1836,-10.1998 -5.6242,0 -10.1836,4.5666 -10.1836,10.1998 0,5.6332 4.5594,10.1998 10.1836,10.1998 z"
       fill="#ffffff"
       id="path3" />
    <path
       d="m 44.2331,125.298 c -7.3572,-1.582 -13.5089,-6.286 -16.9589,-12.947 -2.7018,1.249 -5.7776,1.623 -8.7288,1.082 4.1982,10.283 13.0517,17.735 23.9003,20.067 2.3693,0.499 4.8217,0.749 7.2325,0.749 -1.8705,-2.456 -2.9096,-5.454 -2.9928,-8.535 -0.7897,-0.124 -1.621,-0.249 -2.4523,-0.416 z"
       fill="#ffffff"
       id="path4" />
    <path
       d="m 61.396,135.557 c 5.6243,0 10.1836,-4.567 10.1836,-10.2 0,-5.633 -4.5593,-10.2 -10.1836,-10.2 -5.6242,0 -10.1836,4.567 -10.1836,10.2 0,5.633 4.5594,10.2 10.1836,10.2 z"
       fill="#ffffff"
       id="path5" />
    <path
       d="m 75.6049,121.613 c 3.1589,-3.996 5.4035,-8.742 6.4842,-13.78 1.8704,-8.7843 0.1247,-17.985 -4.8216,-25.4371 -1.1639,2.7893 -3.159,5.1207 -5.7361,6.7443 2.7434,5.2041 3.5747,11.1988 2.3693,16.9858 -0.6235,2.831 -1.6626,5.496 -3.159,7.91 2.3692,1.915 4.0734,4.58 4.8632,7.577 z"
       fill="#ffffff"
       id="path6" />
    <path
       d="m 20.4102,84.3529 c 0.2494,0 0.4987,-0.0416 0.7897,-0.0416 1.0391,0 2.0783,0.1249 3.0759,0.3331 1.6626,0.3746 3.2421,0.9991 4.6553,1.8734 4.6138,-6.6195 12.0125,-10.5745 20.0347,-10.741 0.0416,-0.791 0.1663,-1.5404 0.291,-2.2898 0.4572,-2.2065 1.4132,-4.2465 2.7849,-5.995 -12.8023,-0.9992 -25.272,5.6203 -31.6315,16.8609 z"
       fill="#ffffff"
       id="path7" />
  </g>
</svg>

<svg width="98" height="150" viewBox="0 0 98 150" fill="none" xmlns="http://www.w3.org/2000/svg">
<path d="M97.2222 0H0V150H97.2222V0Z" fill="#E95420"/>
<path d="M21.1982 109.193C26.8225 109.193 31.3818 104.626 31.3818 98.993C31.3818 93.3598 26.8225 88.7932 21.1982 88.7932C15.574 88.7932 11.0146 93.3598 11.0146 98.993C11.0146 104.626 15.574 109.193 21.1982 109.193Z" fill="white"/>
<path d="M63.7241 86.7918C69.3484 86.7918 73.9077 82.2252 73.9077 76.592C73.9077 70.9588 69.3484 66.3922 63.7241 66.3922C58.0999 66.3922 53.5405 70.9588 53.5405 76.592C53.5405 82.2252 58.0999 86.7918 63.7241 86.7918Z" fill="white"/>
<path d="M44.2331 125.298C36.8759 123.716 30.7242 119.012 27.2742 112.351C24.5724 113.6 21.4966 113.974 18.5454 113.433C22.7436 123.716 31.5971 131.168 42.4457 133.5C44.815 133.999 47.2674 134.249 49.6782 134.249C47.8077 131.793 46.7686 128.795 46.6854 125.714C45.8957 125.59 45.0644 125.465 44.2331 125.298Z" fill="white"/>
<path d="M61.396 135.557C67.0203 135.557 71.5796 130.99 71.5796 125.357C71.5796 119.724 67.0203 115.157 61.396 115.157C55.7718 115.157 51.2124 119.724 51.2124 125.357C51.2124 130.99 55.7718 135.557 61.396 135.557Z" fill="white"/>
<path d="M75.6049 121.613C78.7638 117.617 81.0084 112.871 82.0891 107.833C83.9595 99.0487 82.2138 89.848 77.2675 82.3959C76.1036 85.1852 74.1085 87.5166 71.5314 89.1402C74.2748 94.3443 75.1061 100.339 73.9007 106.126C73.2772 108.957 72.2381 111.622 70.7417 114.036C73.1109 115.951 74.8151 118.616 75.6049 121.613Z" fill="white"/>
<path d="M20.4102 84.3529C20.6596 84.3529 20.9089 84.3113 21.1999 84.3113C22.239 84.3113 23.2782 84.4362 24.2758 84.6444C25.9384 85.019 27.5179 85.6435 28.9311 86.5178C33.5449 79.8983 40.9436 75.9433 48.9658 75.7768C49.0074 74.9858 49.1321 74.2364 49.2568 73.487C49.714 71.2805 50.67 69.2405 52.0417 67.492C39.2394 66.4928 26.7697 73.1123 20.4102 84.3529Z" fill="white"/>
</svg>
